X:99
T:Cowboys and Indians
C:Jim Mills
N:TablEdit by Larry Tanner
R:bluegrass
L:1/8
Q:1/4=250
M:4/4
K:Eb
"Cm"Cc ec eg ce | Cc ec eg ce | Cc ec eg ce | C2 G2 B2 =B2 | "Cm"c2 g2 e2 c2 | 
"G7"=Bd fg fd B2 | "Cm"c2 g2 e2 c2 | "G7"=Bd fg fd Bf | "Eb"Bc eg ec Be | "F"=Ac eg ec Ae | 
"Ab"Ac eg ec Ae | "Cm"Gc eg eG Cd | "Cm"D/E/G gd "G"DG D/E/d | "Cm"C2 G2 B2 =B2 | 
"Cm"c2 g2 e2 c2 | "G7"=Bd fg fd B2 | "Cm"c2 g2 e2 c2 | "G7"=Bd fg fd Bf | "Eb"Bc eg ec Be | 
"F"=Ac eg ec Ae | "Ab"Ac eg ec Ae | "Cm"Gc eg eG Cd | D/E/G gd "G"DG D/E/d | "Cm"C2 G2 "G"=A[=B_B] dg | 
"C"c2 gc =eg ce | gG C2 _D2 =D2 | "F7"E2 fE =Af E2 | fE =Af A[=B_B] dg | "C"c2 gc =eg ce | 
g_d [=dd]g d=B _B/=A/d | B/=A/=B Gd gG =Ed | "G7"F=B Gd =A[B_B] dg | "C"[=e2c2] gc eg ce | 
"C7"Bc =eg ec Be | "F"=Ac fg fc Af | "Fm"Ac fg fc Af | "G7"G2 g=B fg Bf | g=B Gf =A[B_B] fg | 
"C"c2 gc =eg ce | gc G2 B2 =B2 | "Cm"c2 g2 e2 c2 | "G7"=B[fd] zB fd B2 | "Cm"c2 g2 e2 c2 | 
"G7"=B[fd] zB fd B2 | "Eb"B[ec] zB ec B2 | "F"=A[ec] zA ec A2 | "Ab"A[ec] zA ec A2 | 
"Cm"G[ec] zG ec G2 | D/E/G gd "G"DG D/E/d | "Cm"C2 G2 B2 =B2 | c2 g2 e2 c2 | "G7"=Bd fg fd B2 | 
"Cm"c2 g2 e2 c2 | "G7"=Bd fg fd Bf | "Eb"Bc eg ec Be | "F"=Ac eg ec Ae | "Ab"Ac eg ec Ae | 
"Cm"Gc eg eG Cd | D/E/G gd "G"DG D/E/d | C2 G2 =A[=B_B] dg | "C"c2 gc =eg ce | 
gG C2 _D2 =D2 | "F"E2 fE =Af E2 | fE =Af A[=B_B] dg | "C"c2 gc =eg ce | "G7"g_d [=dd]g d=B _B/=A/d | 
B/=A/=B Gd gG =Ed | "G7"F=B Gd =A[B_B] dg | "C"[=e2c2] gc eg ce | "C7"Bc =eg ec Be | 
"F"=Ac fg fc Af | "Fm"Ac fg fc Af | "G7"G2 g=B fg Bf | g=B Gf =A[B_B] fg | z2 =ag ge d2 | 
=AG D2 C4 | 


